X:1
T:Title
%%score ( 1 2 3 ) 4
L:1/8
Q:1/4=110
M:3/4
K:Ab
V:1 treble nm="Grand Piano, Soprano"
V:2 treble 
V:3 treble 
V:4 bass nm="Choir Pad, Love So Abundant, G. Tullar"
V:1
 [Ec]2 [Fd]2 [C=A]2 | [Ec]2 [DB]4 | [DB]2 [Ec]2 [B,G]2 | [DB]2 [CA]4 | [FA]2 [EG]2 [DF]2 | %5
w: By~Grant~Colfax~Tullar * *|||||
 [CE]2 [Ec]4 | [=DB]2 [DF]2 [Dc]2 | [DB]6 | [Ec]2 [Fd]2 [C=A]2 | [Ec]2 [DB]4 | [DB]2 [Ec]2 [B,G]2 | %11
w: ||||||
 [DB]2 [CA]4 | [FA]2 [EG]2 [DF]2 | [CE]2 [Ec]4 | [=DB]2 [DF]2 [_DG]2 | [CA]6 |[Q:1/4=103] c4 z2 | %17
w: ||||||
 E6 | d-[Gd-] [Fd]2 c_c | c-[Ac-] [Fc-] [Ec]3 | e-[ce-] [Be]2 cA | d4 z2 | c4 z2 | A6- | A6 |] %25
w: ||||||||
V:2
 x6 | x6 | x6 | x6 | x6 | x6 | x6 | x6 | x6 | x6 | x6 | x6 | x6 | x6 | x6 | x6 | EA .F2 AF | %17
 CC C .C3 | .E2 z .E3 | .E2 z2 z2 | .A2 z .A3 | FF .F2 AB | z E .E2 BE | z C D C3- | C6 |] %25
V:3
 x6 | x6 | x6 | x6 | x6 | x6 | x6 | x6 | x6 | x6 | x6 | x6 | x6 | x6 | x6 | x6 | z2 z .E3 | x6 | %18
 x6 | x6 | x6 | z2 z .F3 | z2 z .D3 | x6 | x6 |] %25
V:4
 A,,E, A,2 E,2 | E,,E, G,2 E,2 | E,,E, G,2 E,2 | A,,E, A,2 E,2 | C,A, D2 A,2 | A,,E, A,2 E,2 | %6
 B,,F, B,2 A,2 | E,G, B,2 E,2 | A,,E, A,2 E,2 | E,,E, G,2 E,2 | E,,E, G,2 E,2 | A,,E, A,2 E,2 | %12
 D,A, D2 A,2 | A,,E, A,2 E,2 | [B,,B,]2 [B,,B,]2 [E,B,]2 | [A,,A,]6 | %16
 [A,,A,][A,,A,] [A,,A,] .[A,,A,]3 | [A,,E,][A,,A,] [A,,F,] .[A,,E,]3 | %18
 [E,G,][E,B,] [E,A,] .[E,G,]3 | [A,,A,][A,,A,] [A,,A,] .[A,,A,]3 | [A,C][A,E] [A,D] .[A,C]3 | %21
 [D,A,][D,G,] [D,A,] .[D,D]3 | z [E,A,] [E,A,] .[E,G,]3 | z [A,,E,] [A,,F,] [A,,E,]3- | [A,,E,]6 |] %25

